svgs/solid/chf-sign.svg

<svg xmlns="http://www.w3.org/2000/svg" viewBox="0 0 640 512"><!--! Font Awesome Pro 6.6.0 by @fontawesome - https://fontawesome.com License - https://fontawesome.com/license (Commercial License) Copyright 2024 Fonticons, Inc. --><path d="M0 113.4C0 68.5 36.5 32 81.4 32c30.8 0 59 17.4 72.8 45l2.3 4.7c7.9 15.8 1.5 35-14.3 42.9s-35 1.5-42.9-14.3L97 105.6c-3-5.9-9-9.6-15.6-9.6C71.8 96 64 103.8 64 113.4l0 285.1c0 9.6 7.8 17.4 17.4 17.4c6.6 0 12.6-3.7 15.6-9.6l2.3-4.7c7.9-15.8 27.1-22.2 42.9-14.3s22.2 27.1 14.3 42.9l-2.3 4.7c-13.8 27.6-42 45-72.8 45C36.5 480 0 443.5 0 398.6L0 113.4zM224 32c17.7 0 32 14.3 32 32l0 160 96 0 0-160c0-17.7 14.3-32 32-32s32 14.3 32 32l0 384c0 17.7-14.3 32-32 32s-32-14.3-32-32l0-160-96 0 0 160c0 17.7-14.3 32-32 32s-32-14.3-32-32l0-384c0-17.7 14.3-32 32-32zM448 64c0-17.7 14.3-32 32-32l128 0c17.7 0 32 14.3 32 32s-14.3 32-32 32l-96 0 0 128 64 0c17.7 0 32 14.3 32 32s-14.3 32-32 32l-64 0 0 160c0 17.7-14.3 32-32 32s-32-14.3-32-32l0-384z"/></svg>

<svg xmlns="http://www.w3.org/2000/svg" viewBox="0 0 640 512"><!--! Font Awesome Pro 6.4.2 by @fontawesome - https://fontawesome.com License - https://fontawesome.com/license (Commercial License) Copyright 2023 Fonticons, Inc. --><path d="M0 113.4C0 68.5 36.5 32 81.4 32c30.8 0 59 17.4 72.8 45l2.3 4.7c7.9 15.8 1.5 35-14.3 42.9s-35 1.5-42.9-14.3L97 105.6c-3-5.9-9-9.6-15.6-9.6C71.8 96 64 103.8 64 113.4V398.6c0 9.6 7.8 17.4 17.4 17.4c6.6 0 12.6-3.7 15.6-9.6l2.3-4.7c7.9-15.8 27.1-22.2 42.9-14.3s22.2 27.1 14.3 42.9l-2.3 4.7c-13.8 27.6-42 45-72.8 45C36.5 480 0 443.5 0 398.6V113.4zM224 32c17.7 0 32 14.3 32 32V224h96V64c0-17.7 14.3-32 32-32s32 14.3 32 32V448c0 17.7-14.3 32-32 32s-32-14.3-32-32V288H256V448c0 17.7-14.3 32-32 32s-32-14.3-32-32V64c0-17.7 14.3-32 32-32zM448 64c0-17.7 14.3-32 32-32H608c17.7 0 32 14.3 32 32s-14.3 32-32 32H512V224h64c17.7 0 32 14.3 32 32s-14.3 32-32 32H512V448c0 17.7-14.3 32-32 32s-32-14.3-32-32V64z"/></svg>
